!!!OTL: Alter Mann und Schueler Es steht ein Schloesschen im Oesterreich,
!!!ARE: Europa, Mitteleuropa, Deutschland (BRD), Rheinpfalz, Bergzabern
!!!YOR: 1, S. 283
!!    1860 aufgezeichnet (erste Haelfte des 19. Jh.)
!!!SCT: Q0025
!!!YEM: Copyright 1995, estate of Helmut Schaffrath.
**kern
*ICvox
*Ivox
!! Irregular meter.
*MX
*k[f#]
*G:
{8d
=1
8g
8b
8g
8g
16f#
16g
=2
8a
8b
4g
8r}
{8g
=3
8b
8.dd
16cc
8b
8a
=4
4g
4a
8r}
{8g
=5
8b
8g
4.dd
8ee
8b
8g
=6
4cc
8r}
{8b
8a
8g
=7
4cc
4b
=8
4a
4g
8r}
{8g
=9
8b
8dd
4cc
4b
=10
4a
8g
8r}
==
!!!AGN: Ballade, Betrug, Hinrichtung, Tod, Vergeltung
!! Verzierungen (Vorschlaege) in der 3. bis 5. Zeile.
!!!ONB: ESAC (Essen Associative Code) Database: BALLADE
!!!AMT: irregular
!!!AIN: vox
!!!EED: Helmut Schaffrath
!!!EEV: 1.0
*-
